assets/svg/logo_doit.svg

<svg fill="none" height="53" viewBox="0 0 86 53" width="86" xmlns="http://www.w3.org/2000/svg" xmlns:xlink="http://www.w3.org/1999/xlink"><mask id="a" height="33" maskUnits="userSpaceOnUse" width="56" x="0" y="0"><path clip-rule="evenodd" d="m.00006104.0703125h55.99743896v32.7880875h-55.99743896z" fill="#fff" fill-rule="evenodd"/></mask><mask id="b" height="5" maskUnits="userSpaceOnUse" width="4" x="82" y="48"><path clip-rule="evenodd" d="m82.118 48.1519h3.8736v4.8448h-3.8736z" fill="#fff" fill-rule="evenodd"/></mask><g mask="url(#a)"><path clip-rule="evenodd" d="m44.2021 13.0469c-2.7096 0-4.9089 3.947-4.9089 8.8098 0 4.8654 2.1993 8.8095 4.9089 8.8095 2.7127 0 4.9105-3.9441 4.9105-8.8095 0-4.8628-2.1978-8.8098-4.9105-8.8098zm-15.8311-9.72524c5.4799 4.42939 5.19 10.40274 5.19 10.40274v2.9967c2.2078-4.2981 6.6278-5.533 6.6278-5.533 5.4268-1.76162 9.8742.4696 9.8742.4696 6.6381 3.0675 5.911 10.1324 5.911 10.1324-.1315 5.1659-2.9086 7.9013-2.9086 7.9013-2.9423 3.2046-8.7825 3.1671-8.7825 3.1671-3.6846-.0347-6.5356-1.4977-6.5356-1.4977-5.2157-2.6025-5.1149-9.4697-5.1149-9.4697-3.3672 7.302-8.06 9.2661-8.06 9.2661-3.4654 1.6666-10.0323 1.6015-10.0323 1.6015h-12.51177c-.75987.0318-1.255948-.1009-1.255948-.1009-.92283-.0983-.7614923-.7975-.7614923-.7975.0691447-.735 1.2892603-1.2303 1.2892603-1.2303l2.37361-1.073c1.09317-.4001 1.02672-1.7764 1.02672-1.7764v-8.7939h9.27552l.6286.8061c.2612.3596.2324.9633.2324.9633v1.4053c0 .5313-1.1884.8605-1.1884.8605-.6617.136-.5622.7004-.5622.7004v3.8664c0 .9026.793.7408.793.7408h10.2995c.6877 0 .5624-.9068.5624-.9068v-4.197l-1.1249-.5994c-.3923-.2052-.3619-1.0023-.3619-1.0023v-10.635c.0979-3.17303-2.2454-5.50395-2.2454-5.50395-3.0357-2.86361-7.9531-2.86361-7.9531-2.86361-1.1911 0-1.223.66704-1.223.66704-.0992.53305.7903.96457.7903.96457 1.5864 1.0688 2.016 2.43515 2.016 2.43515.3953 1.12777.1632 3.6305.1632 3.6305-.062.9691-1.0541 1.7043-1.0541 1.7043h-9.0119v-7.10382c-.10516-2.13184-2.50758-2.9031-2.50758-2.9031-.47015-.06203-1.328333-.32765-1.328333-.32765-.790122-.26869-.790122-.766938-.790122-.766938 0-.901098.892575-.8506062.892575-.8506062h17.86886c6.0653-.0504918 9.4991 3.2507742 9.4991 3.2507742z" fill="#ef4b3e" fill-rule="evenodd"/></g><g clip-rule="evenodd" fill="#ef4b3e" fill-rule="evenodd"><path d="m69 4.99347c0 2.20965-1.7938 4.00653-4.0018 4.00653-2.2078 0-3.9982-1.79688-3.9982-4.00653 0-2.20661 1.7904-3.99347 3.9982-3.99347 2.208 0 4.0018 1.78686 4.0018 3.99347z"/><path d="m59.7316 10.7538s-1.2746-.0538-1.6157.9681c0 0-.2183.7346.9509 1.1338l2.0038.7371v15.1482s.1695 1.4776-1.0571 1.8724c0 0-2.0644.231-2.0082 1.3616 0 0-.1679 1.0247 1.394 1.0247h10.5923s1.1696-.0582 1.2816-1.1381c0 0 .1119-1.1887-1.4502-1.1887 0 0-2.2868-.1076-2.2868-1.7013v-14.0725s-.2779-1.4208 1.1162-1.7576h1.3964s1.3363-.058 1.3911 1.3614v13.161s-.2213 4.4256 3.6244 5.1094c0 0 3.0098.9624 6.2991-1.0786 0 0 2.8966-1.5327 2.6177-3.3515 0 0 0-.7883-1.2225-.1712 0 0-1.6181 1.0828-2.3995 1.1351 0 0-2.1213.2322-2.3961-1.5865 0 0-.115-.7374-.115-1.7011v-12.8217h2.5673s2.5104 0 3.064-1.4759c0 0 .8901-1.4181 0-2.04224 0 0-.6128-.11487-.9492.33964 0 0-.5024.6268-.9986.7345h-3.5685v-5.95431s.0575-.73887-.5019-.79524c0 0-.6142-.11045-1.2816.79524 0 0-2.8942 3.23401-3.6768 3.96988 0 0-1.8456 1.64613-4.1278 1.82023z"/><path d="m25.8216 40.1709c-1.0042-1.8847-2.5501-1.763-2.5501-1.763s-2.173-.1217-2.7205 2.1342c-.1647.9002-.1647 1.7165-.1647 1.7165-.0419.4972.4174.4547.4174.4547h4.7247s.5403.0807.6242-.5329c.0433-1.4767-.331-2.0095-.331-2.0095zm-13.9556.2907c-.9607-1.6414-2.38389-1.6414-2.38389-1.6414-1.92026-.2889-2.50243 1.3111-2.50243 1.3111-1.08822 2.2943-.04348 5.4929-.04348 5.4929 1.2513 4.2996 4.3433 4.5847 4.3433 4.5847 3.2594.371 4.8039-1.5151 4.8039-1.5151-.6271-1.9698-.543-4.2175-.543-4.2175.0851-4.5507 4.3878-6.6438 4.3878-6.6438 4.0947-1.9654 7.7747.1659 7.7747.1659 3.7146 2.2532 3.1326 5.4918 3.1326 5.4918-.0868.9861-1.1707.8612-1.1707.8612h-8.9c-.4204-.0423-.4204.4917-.4204.4917.1662 5.4081 4.9313 5.5342 4.9313 5.5342 2.6758.0342 4.2578-1.437 4.2578-1.437.2121-.204.6747-.4109.6747-.4109.7483-.204.7918.452.7918.452-.0435 1.0627-1.965 2.1713-1.965 2.1713-3.8042 2.5434-7.5623 1.7202-7.5623 1.7202-3.9677-.7779-4.8055-3.0737-4.8055-3.0737-.8364 1.1507-2.2567 1.9658-2.2567 1.9658-3.9661 2.3793-8.35288.5351-8.35288.5351-5.305239-2.4596-3.88489-8.6854-3.88489-8.6854 1.29586-5.3683 7.18526-6.3929 7.18526-6.3929 4.22011-.6604 6.47281 1.5984 6.47281 1.5984 1.085 1.2274.127 2.0466.127 2.0466-.919 1.1479-2.5894 1.8465-2.5894 1.8465-1.1759.4477-1.1282-.8247-1.1282-.8247-.0477-.7723-.3742-1.427-.3742-1.427z"/><path d="m37.6133 36.6265s.039-.9076-.8916-.538c0 0-2.3025 1.3632-4.4822 1.7827 0 0-.9628.0786-1.1693.4869 0 0-.3195.7036.4048.9105l.6863.2083s.7663.0788.7286 1.1561v8.4555s0 .7863-.6504 1.2018c0 0-1.0074.6993-.8443 1.1117 0 0 0 .6209 1.0856.4594 0 0 3.1873-.7503 6.1777.0358 0 0 1.0493.4126 1.4092-.4156 0 0 .2835-.8187-.7243-1.0702 0 0-1.8181-.3327-1.8181-1.6886v-6.8136s-.1185-1.9384 1.8587-2.6406c0 0 2.0583-.6594 3.0657.9891 0 0 .649 1.0732.649 2.479v6.3518s.0781.8678-.7718 1.3229c0 0-.8846.331-.8066.9906 0 0 .0392.6596 1.0927.4952 0 0 3.2679-.538 5.5663-.124 0 0 1.4498.4954 1.7777-.2916 0 0 .3237-.7392-.805-1.1557 0 0-1.3773-.1627-1.3773-1.8556v-6.7653s.3249-4.169-3.8724-5.1612c0 0-2.6637-.8249-5.4462 1.6117 0 0-.6489.659-.7648.7419 0 0-.166.1231-.078-.5764z"/><path d="m60.5248 42.0749c0 .7002.7312.5779.7312.5779h4.4915c1.1824-.5381.3662-2.14.3662-2.14-.938-2.5142-3.0177-2.0598-3.0177-2.0598-2.6997.5765-2.5712 3.6219-2.5712 3.6219zm-6.7413-4.5717h1.8343c.7769.0841 1.4687-.3744 1.4687-.3744.3673-.2433.6959-.2833.6959-.2833.6952-.0427.2107.991.2107.991l-.4561 1.0705c-.2839.6578-1.181.6578-1.181.6578h-2.0002c-.8153 0-.6556.9866-.6556.9866v8.1935c.4518 2.5954 3.4297 1.1091 3.4297 1.1091-3.3096-6.8752 1.1878-10.6197 1.1878-10.6197 2.8536-2.8002 7.1026-2.0571 7.1026-2.0571 5.7989 1.2358 5.4276 6.213 5.4276 6.213-.0407.9894-.9348.9069-.9348.9069h-8.7023c-.6072-.0371-.686.4939-.686.4939.0349 4.4022 3.9977 5.4331 3.9977 5.4331 3.3462.6177 5.1452-1.3584 5.1452-1.3584.7369-.6961 1.1395-.2872 1.1395-.2872.4954.5367-.1203 1.2755-.1203 1.2755-2.6501 3.3352-7.5909 3.129-7.5909 3.129-3.6402-.2474-4.8592-1.7681-4.8592-1.7681-.2437-.2906-.3726-.1655-.3726-.1655-2.2464 2.4673-5.7596 1.8925-5.7596 1.8925-3.1445-.5354-3.0232-4.1131-3.0232-4.1131v-8.6079c.0497-.699-.4419-.6163-.4419-.6163h-1.1465c-.4505-.0398-.493-.3703-.493-.3703 0-.6177.5312-.8213.5312-.8213 2.413-1.3185 4.9856-4.5743 4.9856-4.5743.4904-.6561.7372-.783.7372-.783.6497-.2861.6086.6236.6086.6236z"/><path d="m76.4823 36.2952s-2.0155.9912-4.3669 1.5752c0 0-1.0685.1543-1.1127.6157-.0357.4911.2916.6184.5808.744 0 0 1.147.2857 1.234.9498v8.9582s.1236.744-.7417 1.3639c0 0-.8213.4143-.5368 1.1564 0 0 .1683.536 1.4479.2116 0 0 2.2172-.3356 4.3579-.1696 0 0 1.4804.1696 1.8107.2483 0 0 .9448.2871 1.2339-.497 0 0 .3301-.8241-.6988-1.0328 0 0-1.9332-.3328-2.014-1.608v-6.57s-.0443-1.7309 1.3536-1.8136c0 0 .8664-.2474 1.7707 1.111 0 0 .6984 1.3668 1.9367.2525 0 0 .7818-.6611 1.1915-2.1092 0 0 .3687-.8672-.5753-2.0239 0 0-1.1099-1.4053-2.3896-1.1954 0 0-.696-.0487-1.5654 1.0725l-1.3935 1.6953s-.4158.617-.373-.0842v-1.9824s.0839-.9498-.2022-1.1182c0 0-.2076-.2029-.9478.2499z"/></g><g mask="url(#b)"><path clip-rule="evenodd" d="m83.598 49.7194h.1676c.2376 0 .383.0125.441.0355.0603.0293.1083.0664.1366.1156.0357.0585.0518.1156.0518.1894 0 .0739-.0161.14-.0518.1956-.0283.0587-.0763.0956-.1334.1185-.0612.023-.2066.0325-.4442.0325h-.1676zm0 2.138v-1.0492h.1096c.1159 0 .208.034.2868.111.0752.0696.1677.245.2809.5238l.1674.4144h.5142l-.2306-.5148c-.0911-.1859-.139-.2846-.1514-.3107-.0654-.0974-.1086-.1589-.1403-.191-.0336-.0369-.0816-.071-.1454-.0958.1758-.0354.3091-.1186.4038-.2461.0937-.1293.142-.2866.142-.4729 0-.1354-.0214-.2569-.0706-.3621-.0564-.1108-.1191-.1923-.1957-.245-.0755-.0552-.1824-.0891-.3204-.1045-.0479 0-.266-.0063-.6565-.0063h-.4132v2.5492zm-.5016-3.3961c-.3055.2046-.5472.5067-.7249.8946-.1697.3896-.2535.7963-.2535 1.2167 0 .4189.08.8269.2535 1.2064.1717.3804.4092.6819.7123.8979.3048.2136.6298.3198.9686.3198.3379 0 .6603-.1062.9671-.3198.3031-.216.5421-.5175.7137-.8979.1709-.3795.2584-.7875.2584-1.2064 0-.4204-.0875-.8271-.2686-1.2167-.1687-.3879-.4086-.69-.7134-.8946-.303-.2079-.6267-.3094-.9572-.3094-.3326 0-.6517.1015-.956.3094zm1.7172.4217c.2491.1667.4364.4006.5808.7179.1403.3052.2094.6331.2094.9706 0 .3369-.0691.6588-.2058.9636-.1407.3098-.3313.5427-.5742.7227-.2438.1708-.5015.2541-.7728.2541-.2706 0-.5244-.0833-.77-.2541-.245-.18-.4363-.4129-.5764-.7227-.1357-.3048-.201-.6267-.201-.9636 0-.3375.0679-.6654.2071-.9706.1366-.3173.3299-.5512.5763-.7179.243-.166.5016-.2479.764-.2479.2651 0 .5177.0819.7626.2479z" fill="#ef4b3e" fill-rule="evenodd"/></g></svg>

<svg width="86" height="53" viewBox="0 0 86 53" fill="none" xmlns="http://www.w3.org/2000/svg">
<mask id="mask0" mask-type="alpha" maskUnits="userSpaceOnUse" x="0" y="0" width="56" height="33">
<path fill-rule="evenodd" clip-rule="evenodd" d="M6.10352e-05 0.0703125H55.9975V32.8584H6.10352e-05V0.0703125Z" fill="white"/>
</mask>
<g mask="url(#mask0)">
<path fill-rule="evenodd" clip-rule="evenodd" d="M44.2021 13.0469C41.4925 13.0469 39.2932 16.9939 39.2932 21.8567C39.2932 26.7221 41.4925 30.6662 44.2021 30.6662C46.9148 30.6662 49.1126 26.7221 49.1126 21.8567C49.1126 16.9939 46.9148 13.0469 44.2021 13.0469ZM28.371 3.32166C33.8509 7.75105 33.561 13.7244 33.561 13.7244V16.7211C35.7688 12.423 40.1888 11.1881 40.1888 11.1881C45.6156 9.42648 50.063 11.6577 50.063 11.6577C56.7011 14.7252 55.974 21.7901 55.974 21.7901C55.8425 26.956 53.0654 29.6914 53.0654 29.6914C50.1231 32.896 44.2829 32.8585 44.2829 32.8585C40.5983 32.8238 37.7473 31.3608 37.7473 31.3608C32.5316 28.7583 32.6324 21.8911 32.6324 21.8911C29.2652 29.1931 24.5724 31.1572 24.5724 31.1572C21.107 32.8238 14.5401 32.7587 14.5401 32.7587H2.02833C1.26846 32.7905 0.772382 32.6578 0.772382 32.6578C-0.150448 32.5595 0.0108897 31.8603 0.0108897 31.8603C0.0800344 31.1253 1.30015 30.63 1.30015 30.63L3.67376 29.557C4.76693 29.1569 4.70048 27.7806 4.70048 27.7806V18.9867H13.976L14.6046 19.7928C14.8658 20.1524 14.837 20.7561 14.837 20.7561V22.1614C14.837 22.6927 13.6486 23.0219 13.6486 23.0219C12.9869 23.1579 13.0864 23.7223 13.0864 23.7223V27.5887C13.0864 28.4913 13.8794 28.3295 13.8794 28.3295H24.1789C24.8666 28.3295 24.7413 27.4227 24.7413 27.4227V23.2257L23.6164 22.6263C23.2241 22.4211 23.2545 21.624 23.2545 21.624V10.989C23.3524 7.81597 21.0091 5.48505 21.0091 5.48505C17.9734 2.62144 13.056 2.62144 13.056 2.62144C11.8649 2.62144 11.833 3.28848 11.833 3.28848C11.7338 3.82153 12.6233 4.25305 12.6233 4.25305C14.2097 5.32185 14.6393 6.6882 14.6393 6.6882C15.0346 7.81597 14.8025 10.3187 14.8025 10.3187C14.7405 11.2878 13.7484 12.023 13.7484 12.023H4.7365V4.91918C4.63134 2.78734 2.22892 2.01608 2.22892 2.01608C1.75877 1.95405 0.900587 1.68843 0.900587 1.68843C0.110465 1.41974 0.110465 0.921492 0.110465 0.921492C0.110465 0.020394 1.00304 0.0708858 1.00304 0.0708858H18.8719C24.9372 0.020394 28.371 3.32166 28.371 3.32166Z" fill="#EF4B3E"/>
</g>
<path fill-rule="evenodd" clip-rule="evenodd" d="M69 4.99347C69 7.20312 67.2062 9 64.9982 9C62.7904 9 61 7.20312 61 4.99347C61 2.78686 62.7904 1 64.9982 1C67.2062 1 69 2.78686 69 4.99347Z" fill="#EF4B3E"/>
<path fill-rule="evenodd" clip-rule="evenodd" d="M59.7316 10.7538C59.7316 10.7538 58.457 10.7 58.1159 11.7219C58.1159 11.7219 57.8976 12.4565 59.0668 12.8557L61.0706 13.5928V28.741C61.0706 28.741 61.2401 30.2186 60.0135 30.6134C60.0135 30.6134 57.9491 30.8444 58.0053 31.975C58.0053 31.975 57.8374 32.9997 59.3993 32.9997H69.9916C69.9916 32.9997 71.1612 32.9415 71.2732 31.8616C71.2732 31.8616 71.3851 30.6729 69.823 30.6729C69.823 30.6729 67.5362 30.5653 67.5362 28.9716V14.8991C67.5362 14.8991 67.2583 13.4783 68.6524 13.1415H70.0488C70.0488 13.1415 71.3851 13.0835 71.4399 14.5029V27.6639C71.4399 27.6639 71.2186 32.0895 75.0643 32.7733C75.0643 32.7733 78.0741 33.7357 81.3634 31.6947C81.3634 31.6947 84.26 30.162 83.9811 28.3432C83.9811 28.3432 83.9811 27.5549 82.7586 28.172C82.7586 28.172 81.1405 29.2548 80.3591 29.3071C80.3591 29.3071 78.2378 29.5393 77.963 27.7206C77.963 27.7206 77.848 26.9832 77.848 26.0195V13.1978H80.4153C80.4153 13.1978 82.9257 13.1978 83.4793 11.7219C83.4793 11.7219 84.3694 10.3038 83.4793 9.67966C83.4793 9.67966 82.8665 9.56479 82.5301 10.0193C82.5301 10.0193 82.0277 10.6461 81.5315 10.7538H77.963V4.79949C77.963 4.79949 78.0205 4.06062 77.4611 4.00425C77.4611 4.00425 76.8469 3.8938 76.1795 4.79949C76.1795 4.79949 73.2853 8.0335 72.5027 8.76937C72.5027 8.76937 70.6571 10.4155 68.3749 10.5896L59.7316 10.7538Z" fill="#EF4B3E"/>
<path fill-rule="evenodd" clip-rule="evenodd" d="M25.8216 40.1709C24.8174 38.2862 23.2715 38.4079 23.2715 38.4079C23.2715 38.4079 21.0985 38.2862 20.551 40.5421C20.3863 41.4423 20.3863 42.2586 20.3863 42.2586C20.3444 42.7558 20.8037 42.7133 20.8037 42.7133H25.5284C25.5284 42.7133 26.0687 42.794 26.1526 42.1804C26.1959 40.7037 25.8216 40.1709 25.8216 40.1709ZM11.866 40.4616C10.9053 38.8202 9.48211 38.8202 9.48211 38.8202C7.56185 38.5313 6.97968 40.1313 6.97968 40.1313C5.89146 42.4256 6.9362 45.6242 6.9362 45.6242C8.1875 49.9238 11.2795 50.2089 11.2795 50.2089C14.5389 50.5799 16.0834 48.6938 16.0834 48.6938C15.4563 46.724 15.5404 44.4763 15.5404 44.4763C15.6255 39.9256 19.9282 37.8325 19.9282 37.8325C24.0229 35.8671 27.7029 37.9984 27.7029 37.9984C31.4175 40.2516 30.8355 43.4902 30.8355 43.4902C30.7487 44.4763 29.6648 44.3514 29.6648 44.3514H20.7648C20.3444 44.3091 20.3444 44.8431 20.3444 44.8431C20.5106 50.2512 25.2757 50.3773 25.2757 50.3773C27.9515 50.4115 29.5335 48.9403 29.5335 48.9403C29.7456 48.7363 30.2082 48.5294 30.2082 48.5294C30.9565 48.3254 31 48.9814 31 48.9814C30.9565 50.0441 29.035 51.1527 29.035 51.1527C25.2308 53.6961 21.4727 52.8729 21.4727 52.8729C17.505 52.095 16.6672 49.7992 16.6672 49.7992C15.8308 50.9499 14.4105 51.765 14.4105 51.765C10.4444 54.1443 6.05762 52.3001 6.05762 52.3001C0.752381 49.8405 2.17273 43.6147 2.17273 43.6147C3.46859 38.2464 9.35799 37.2218 9.35799 37.2218C13.5781 36.5614 15.8308 38.8202 15.8308 38.8202C16.9158 40.0476 15.9578 40.8668 15.9578 40.8668C15.0388 42.0147 13.3684 42.7133 13.3684 42.7133C12.1925 43.161 12.2402 41.8886 12.2402 41.8886C12.1925 41.1163 11.866 40.4616 11.866 40.4616Z" fill="#EF4B3E"/>
<path fill-rule="evenodd" clip-rule="evenodd" d="M37.6133 36.6265C37.6133 36.6265 37.6523 35.7189 36.7217 36.0885C36.7217 36.0885 34.4192 37.4517 32.2395 37.8712C32.2395 37.8712 31.2767 37.9498 31.0702 38.3581C31.0702 38.3581 30.7507 39.0617 31.475 39.2686L32.1613 39.4769C32.1613 39.4769 32.9276 39.5557 32.8899 40.633V49.0885C32.8899 49.0885 32.8899 49.8748 32.2395 50.2903C32.2395 50.2903 31.2321 50.9896 31.3952 51.402C31.3952 51.402 31.3952 52.0229 32.4808 51.8614C32.4808 51.8614 35.6681 51.1111 38.6585 51.8972C38.6585 51.8972 39.7078 52.3098 40.0677 51.4816C40.0677 51.4816 40.3512 50.6629 39.3434 50.4114C39.3434 50.4114 37.5253 50.0787 37.5253 48.7228V41.9092C37.5253 41.9092 37.4068 39.9708 39.384 39.2686C39.384 39.2686 41.4423 38.6092 42.4497 40.2577C42.4497 40.2577 43.0987 41.3309 43.0987 42.7367V49.0885C43.0987 49.0885 43.1768 49.9563 42.3269 50.4114C42.3269 50.4114 41.4423 50.7424 41.5203 51.402C41.5203 51.402 41.5595 52.0616 42.613 51.8972C42.613 51.8972 45.8809 51.3592 48.1793 51.7732C48.1793 51.7732 49.6291 52.2686 49.957 51.4816C49.957 51.4816 50.2807 50.7424 49.152 50.3259C49.152 50.3259 47.7747 50.1632 47.7747 48.4703V41.705C47.7747 41.705 48.0996 37.536 43.9023 36.5438C43.9023 36.5438 41.2386 35.7189 38.4561 38.1555C38.4561 38.1555 37.8072 38.8145 37.6913 38.8974C37.6913 38.8974 37.5253 39.0205 37.6133 38.321V36.6265Z" fill="#EF4B3E"/>
<path fill-rule="evenodd" clip-rule="evenodd" d="M60.5248 42.0749C60.5248 42.7751 61.256 42.6528 61.256 42.6528H65.7475C66.9299 42.1147 66.1137 40.5128 66.1137 40.5128C65.1757 37.9986 63.096 38.453 63.096 38.453C60.3963 39.0295 60.5248 42.0749 60.5248 42.0749ZM53.7835 37.5032H55.6178C56.3947 37.5873 57.0865 37.1288 57.0865 37.1288C57.4538 36.8855 57.7824 36.8455 57.7824 36.8455C58.4776 36.8028 57.9931 37.8365 57.9931 37.8365L57.537 38.907C57.2531 39.5648 56.356 39.5648 56.356 39.5648H54.3558C53.5405 39.5648 53.7002 40.5514 53.7002 40.5514V48.7449C54.152 51.3403 57.1299 49.854 57.1299 49.854C53.8203 42.9788 58.3177 39.2343 58.3177 39.2343C61.1713 36.4341 65.4203 37.1772 65.4203 37.1772C71.2192 38.413 70.8479 43.3902 70.8479 43.3902C70.8072 44.3796 69.9131 44.2971 69.9131 44.2971H61.2108C60.6036 44.26 60.5248 44.791 60.5248 44.791C60.5597 49.1932 64.5225 50.2241 64.5225 50.2241C67.8687 50.8418 69.6677 48.8657 69.6677 48.8657C70.4046 48.1696 70.8072 48.5785 70.8072 48.5785C71.3026 49.1152 70.6869 49.854 70.6869 49.854C68.0368 53.1892 63.096 52.983 63.096 52.983C59.4558 52.7356 58.2368 51.2149 58.2368 51.2149C57.9931 50.9243 57.8642 51.0494 57.8642 51.0494C55.6178 53.5167 52.1046 52.9419 52.1046 52.9419C48.9601 52.4065 49.0814 48.8288 49.0814 48.8288V40.2209C49.1311 39.5219 48.6395 39.6046 48.6395 39.6046H47.493C47.0425 39.5648 47 39.2343 47 39.2343C47 38.6166 47.5312 38.413 47.5312 38.413C49.9442 37.0945 52.5168 33.8387 52.5168 33.8387C53.0072 33.1826 53.254 33.0557 53.254 33.0557C53.9037 32.7696 53.8626 33.6793 53.8626 33.6793L53.7835 37.5032Z" fill="#EF4B3E"/>
<path fill-rule="evenodd" clip-rule="evenodd" d="M76.4823 36.2952C76.4823 36.2952 74.4668 37.2864 72.1154 37.8704C72.1154 37.8704 71.0469 38.0247 71.0027 38.4861C70.967 38.9772 71.2943 39.1045 71.5835 39.2301C71.5835 39.2301 72.7305 39.5158 72.8175 40.1799V49.1381C72.8175 49.1381 72.9411 49.8821 72.0758 50.502C72.0758 50.502 71.2545 50.9163 71.539 51.6584C71.539 51.6584 71.7073 52.1944 72.9869 51.87C72.9869 51.87 75.2041 51.5344 77.3448 51.7004C77.3448 51.7004 78.8252 51.87 79.1555 51.9487C79.1555 51.9487 80.1003 52.2358 80.3894 51.4517C80.3894 51.4517 80.7195 50.6276 79.6906 50.4189C79.6906 50.4189 77.7574 50.0861 77.6766 48.8109V42.2409C77.6766 42.2409 77.6323 40.51 79.0302 40.4273C79.0302 40.4273 79.8966 40.1799 80.8009 41.5383C80.8009 41.5383 81.4993 42.9051 82.7376 41.7908C82.7376 41.7908 83.5194 41.1297 83.9291 39.6816C83.9291 39.6816 84.2978 38.8144 83.3538 37.6577C83.3538 37.6577 82.2439 36.2524 80.9642 36.4623C80.9642 36.4623 80.2682 36.4136 79.3988 37.5348L78.0053 39.2301C78.0053 39.2301 77.5895 39.8471 77.6323 39.1459V37.1635C77.6323 37.1635 77.7162 36.2137 77.4301 36.0453C77.4301 36.0453 77.2225 35.8424 76.4823 36.2952Z" fill="#EF4B3E"/>
<mask id="mask1" mask-type="alpha" maskUnits="userSpaceOnUse" x="82" y="48" width="4" height="5">
<path fill-rule="evenodd" clip-rule="evenodd" d="M82.118 48.1519H85.9916V52.9967H82.118V48.1519Z" fill="white"/>
</mask>
<g mask="url(#mask1)">
<path fill-rule="evenodd" clip-rule="evenodd" d="M83.598 49.7194H83.7656C84.0032 49.7194 84.1486 49.7319 84.2066 49.7549C84.2669 49.7842 84.3149 49.8213 84.3432 49.8705C84.3789 49.929 84.395 49.9861 84.395 50.0599C84.395 50.1338 84.3789 50.1999 84.3432 50.2555C84.3149 50.3142 84.2669 50.3511 84.2098 50.374C84.1486 50.397 84.0032 50.4065 83.7656 50.4065H83.598V49.7194ZM83.598 51.8574V50.8082H83.7076C83.8235 50.8082 83.9156 50.8422 83.9944 50.9192C84.0696 50.9888 84.1621 51.1642 84.2753 51.443L84.4427 51.8574H84.9569L84.7263 51.3426C84.6352 51.1567 84.5873 51.058 84.5749 51.0319C84.5095 50.9345 84.4663 50.873 84.4346 50.8409C84.401 50.804 84.353 50.7699 84.2892 50.7451C84.465 50.7097 84.5983 50.6265 84.693 50.499C84.7867 50.3697 84.835 50.2124 84.835 50.0261C84.835 49.8907 84.8136 49.7692 84.7644 49.664C84.708 49.5532 84.6453 49.4717 84.5687 49.419C84.4932 49.3638 84.3863 49.3299 84.2483 49.3145C84.2004 49.3145 83.9823 49.3082 83.5918 49.3082H83.1786V51.8574H83.598ZM83.0964 48.4613C82.7909 48.6659 82.5492 48.968 82.3715 49.3559C82.2018 49.7455 82.118 50.1522 82.118 50.5726C82.118 50.9915 82.198 51.3995 82.3715 51.779C82.5432 52.1594 82.7807 52.4609 83.0838 52.6769C83.3886 52.8905 83.7136 52.9967 84.0524 52.9967C84.3903 52.9967 84.7127 52.8905 85.0195 52.6769C85.3226 52.4609 85.5616 52.1594 85.7332 51.779C85.9041 51.3995 85.9916 50.9915 85.9916 50.5726C85.9916 50.1522 85.9041 49.7455 85.723 49.3559C85.5543 48.968 85.3144 48.6659 85.0096 48.4613C84.7066 48.2534 84.3829 48.1519 84.0524 48.1519C83.7198 48.1519 83.4007 48.2534 83.0964 48.4613ZM84.8136 48.883C85.0627 49.0497 85.25 49.2836 85.3944 49.6009C85.5347 49.9061 85.6038 50.234 85.6038 50.5715C85.6038 50.9084 85.5347 51.2303 85.398 51.5351C85.2573 51.8449 85.0667 52.0778 84.8238 52.2578C84.58 52.4286 84.3223 52.5119 84.051 52.5119C83.7804 52.5119 83.5266 52.4286 83.281 52.2578C83.036 52.0778 82.8447 51.8449 82.7046 51.5351C82.5689 51.2303 82.5036 50.9084 82.5036 50.5715C82.5036 50.234 82.5715 49.9061 82.7107 49.6009C82.8473 49.2836 83.0406 49.0497 83.287 48.883C83.53 48.717 83.7886 48.6351 84.051 48.6351C84.3161 48.6351 84.5687 48.717 84.8136 48.883Z" fill="#EF4B3E"/>
</g>
</svg>
